icons/girl_0105y.svg

<svg width="48" height="48" viewBox="0 0 48 48" fill="none" xmlns="http://www.w3.org/2000/svg">
<path fill-rule="evenodd" clip-rule="evenodd" d="M32.7016 17.7801C34.2987 17.3391 35.9508 18.2764 36.3918 19.8735C36.8328 21.4706 35.8955 23.1227 34.2984 23.5637C32.8356 23.9676 31.4692 24.2984 30.1586 24.5527C30.7442 26.0368 31.5883 27.7109 32.1913 28.8474C32.8308 30.0529 32.1146 31.5901 30.7094 31.7894C25.5537 32.5204 21.9434 32.5 16.3758 31.7799C14.9361 31.5937 14.2035 30.0082 14.8783 28.7874C15.5302 27.6079 16.4207 25.8814 16.981 24.3505C15.9444 24.1312 14.8694 23.8709 13.7373 23.5733C12.1349 23.1521 11.1773 21.5116 11.5986 19.9092C12.0198 18.3068 13.6603 17.3492 15.2627 17.7705C18.8601 18.7161 21.4783 19.1609 24.0125 19.1717C26.537 19.1824 29.1428 18.7627 32.7016 17.7801ZM34.4639 20.4058C34.3169 19.8734 33.7662 19.561 33.2339 19.708C29.5741 20.7184 26.7755 21.1835 24.0041 21.1717C21.2293 21.1599 18.4266 20.6701 14.7542 19.7048C14.2201 19.5643 13.6733 19.8835 13.5329 20.4177C13.3925 20.9518 13.7116 21.4986 14.2458 21.639C15.7563 22.0361 17.143 22.36 18.459 22.6062L19.5218 22.805L19.2408 23.8491C18.7064 25.834 17.4297 28.3057 16.6287 29.7549C16.6261 29.7596 16.6252 29.7625 16.6248 29.7639C16.6244 29.7655 16.6242 29.7673 16.6241 29.7695C16.6241 29.7745 16.6254 29.7821 16.6292 29.7898C16.6307 29.7929 16.6322 29.7951 16.6333 29.7965C22.0416 30.496 25.4694 30.512 30.424 29.8098C30.4239 29.8101 30.4242 29.8096 30.424 29.8098C30.4266 29.8045 30.4279 29.7986 30.4279 29.7954C30.4279 29.7941 30.4278 29.793 30.4275 29.792C30.4273 29.7912 30.4267 29.7889 30.4245 29.7848C29.6708 28.3642 28.4556 25.9512 27.8646 24.0767L27.5169 22.9739L28.6584 22.7889C30.2367 22.5332 31.9067 22.1492 33.7662 21.6358C34.2985 21.4888 34.6109 20.9381 34.4639 20.4058Z" fill="black"/>
<path fill-rule="evenodd" clip-rule="evenodd" d="M24 15C25.1046 15 26 14.1046 26 13C26 11.8954 25.1046 11 24 11C22.8954 11 22 11.8954 22 13C22 14.1046 22.8954 15 24 15ZM24 17C26.2092 17 28 15.2091 28 13C28 10.7909 26.2092 9 24 9C21.7909 9 20 10.7909 20 13C20 15.2091 21.7909 17 24 17Z" fill="black"/>
<path fill-rule="evenodd" clip-rule="evenodd" d="M19 33.0138V36.5001C19 37.2523 19.5571 37.8882 20.3028 37.9871C21.0485 38.086 21.7521 37.6173 21.9482 36.891L22.8885 33.4077C21.646 33.3485 20.373 33.2177 19 33.0138ZM26.1097 33.401L27.0519 36.891C27.2479 37.6173 27.9515 38.086 28.6972 37.9871C29.4429 37.8882 30 37.2523 30 36.5001V33C28.6264 33.2027 27.3529 33.3369 26.1097 33.401Z" fill="black"/>
</svg>

<svg
  xmlns="http://www.w3.org/2000/svg"
  width="24"
  height="24"
  viewBox="0 0 24 24"
  fill="none"
  stroke="currentColor"
  stroke-width="2"
  stroke-linecap="round"
  stroke-linejoin="round"
>
  <path
    fill-rule="evenodd"
    d="M32.702 17.78a3 3 0 1 1 1.596 5.784c-1.462.404-2.829.734-4.14.989.586 1.484 1.43 3.158 2.033 4.294.64 1.206-.076 2.743-1.482 2.942-5.155.731-8.766.711-14.333-.01-1.44-.185-2.173-1.77-1.498-2.992.652-1.18 1.543-2.906 2.103-4.436a69 69 0 0 1-3.244-.778 3 3 0 1 1 1.526-5.803c3.597.946 6.215 1.39 8.75 1.402 2.524.01 5.13-.41 8.689-1.392m1.762 2.626a1 1 0 0 0-1.23-.698c-3.66 1.01-6.459 1.476-9.23 1.464-2.775-.012-5.577-.502-9.25-1.467a1 1 0 1 0-.508 1.934c1.51.397 2.897.721 4.213.967l1.063.199-.281 1.044c-.535 1.985-1.811 4.457-2.612 5.906l-.004.009v.006a.05.05 0 0 0 .008.027c5.409.699 8.836.715 13.791.013l.004-.015v-.003l-.004-.007c-.753-1.42-1.968-3.834-2.56-5.708l-.347-1.103 1.141-.185c1.579-.256 3.249-.64 5.108-1.153a1 1 0 0 0 .698-1.23"
    clip-rule="evenodd"
  />
  <path
    fill-rule="evenodd"
    d="M24 15a2 2 0 1 0 0-4 2 2 0 0 0 0 4m0 2a4 4 0 1 0 0-8 4 4 0 0 0 0 8"
    clip-rule="evenodd"
  />
  <path
    fill-rule="evenodd"
    d="M19 33.014V36.5a1.5 1.5 0 0 0 2.948.391l.94-3.483A39 39 0 0 1 19 33.014m7.11.387.942 3.49a1.5 1.5 0 0 0 2.948-.39V33a41 41 0 0 1-3.89.401"
    clip-rule="evenodd"
  />
</svg>
